X: 0531
T: the Nameless
%R: reel
%N: This is version 1, for ABC software that doesn't understand some ABC 2.* features.
Z: 2017 John Chambers <jc:trillian.mit.edu>
B: Skillern & Challoner "A Favorite Collection of Popular Country Dances", London 1808, No. 5 p.3 #1
F: https://archive.org/search.php?query=Country%20Dances
F: https://archive.org/details/SkillernChallonerCountryDances5
M: C
L: 1/8
K: F
% - - - - - - - - - - - - - - - - - - - - - - - - -
V: 1 staves=2
"_Dol"AB !segno!|\
c2ag {g}f2"dim. . ."df | c2ag {g}f2df |\
(cdcB) (ABcA) | (cBAB) G2(AB) |\
c2ag "_dim. . ."{g}f2df |
c2ag "_dim. . ."{g}f2df |\
.c(dcB) A(BAG) | FAcf !fine!F2 H|][| EF |\
(GABc) (cBAG) | (ABcd) (dcBA) |
"^>"{GA}B2AG "^>"{FG}A2GF | EFDE C2EF |\
(GABc) (cBAG) | (Aa)gf (ef)cA |\
.B(Bg)B .A(Af)A | "_dim. . ."(ed)cd "_dim. . ."(cB)AB !segno!:|
% - - - - - - - - - - - - - - - - - - - - - - - - -
V: 2 clef=bass middle=D
z2 !segno!|\
FcAc FdBd | FcAc FdBd | FcAc FcAc | EcGc EcGc | FcAc FdBd |
FcAc FdBd | FcAc EcBc | FcAc F2 H|][| z2 | C4 E2C2 | F4 A2F2 | E2c2 F2c2 |
G2G,2 C2z2 | C4 E2C2 | F4 A2F2 | E2c2 F2c2 | C4 "^Da Capo."z4 :|
% - - - - - - - - - - - - - - - - - - - - - - - - -
%%begintext align
%% 1st Lady turns the 2d Gentleman,
%% 1st Gent: turns the 2d Lady,
%% down the middle up again
%% and swing corners.
%%endtext
% - - - - - - - - - - - - - - - - - - - - - - - - -
%%sep 1 5 500
